X:305
T:The Handsome Couple
C:Thompson 1778
N:For the dance "The Merry Meeting" in the Apted Book
L:1/8
M:6/8
S:Colin Hume's website,  colinhume.com  - chords can also be printed below the stave.
Q:3/8=112
K:D
P:A
|: "G"GAG "Am"F2E | "D"FEF D3 | "G"GAG "D"AFA | "G"B3 "D"d3 |\
"G"GAG "Am"F2E | "D"FEF D3 | "G"GAB "D"AFD | "A7"E3 "D"D3 :|
P:B
|: "G"GAB "G/F#"BAB | "G/E"BAB "G/D"BAG | "D"FGA A2d | "D"ABA AGF |\
"G"GAB "G/F#"BAB | "G/E"BAB "G/D"BAG | "D"FAd "Bm"AFD | "A7"E3 "D"D3 :|

